!!!!SEGMENT: pl-wtm--r-1229-3-m_moniuszko-stanislaw--szumi-gaj.krn
!!!cenid: 18xx:2854
!!!COM: Moniuszko, Stanisław
!!!COM-rismid: pe30008351
!!!CDT: 1819/05/05-1872/06/04
!!!CNT: Polish
!!!OTL: Szumi gaj
!!!PDT:
!!!AGN:
!!!SMS-siglum: PL-Wtm
!!!SMS-shelfmark: R 1229/3/M
!!!SMS-shelfwork: W
!!!SMS-variant:
!!!SMS-altvar:
!!!NIFC-rismid: 1001100457
!!!URL-scan: http://repozytorium.nifc.pl/skany/pl-wtm-nut--r1229m
!!!ONB-nifc: UWAGA: obsada: Coro S, Coro A, Coro T, Coro B, pf
**kern	**kern	**dynam	**kern	**text	**kern	**text	**dynam
*part3	*part3	*part3	*part2	*part2	*part1	*part1	*part1
*staff4	*staff3	*	*staff2	*staff2	*staff1	*staff1	*
*Iforte	*Iforte	*	*Itenor&Ibass	*	*Iempty	*	*
*I"[Fortepian]	*I"[Fortepian]	*	*I"Tero / Bas	*	*I"Sopra / Alt	*	*
*clefF4	*clefG2	*	*clefF4	*	*clefG2	*	*
*k[b-e-a-d-]	*k[b-e-a-d-]	*	*k[b-e-a-d-]	*	*k[b-e-a-d-]	*	*
*f:	*f:	*	*f:	*	*f:	*	*
*M2/4	*M2/4	*	*M2/4	*	*M2/4	*	*
*all/middle or right	*all/middle or right	*	*all/middle or right	*	*all/middle or right	*	*
*all\middle or right	*all\middle or right	*	*all\middle or right	*	*all\middle or right	*	*
*2\right	*2\right	*	*2\right	*	*2\right	*	*
=1	=1	=1	=1	=1	=1	=1	=1
!	!LO:TX:a:i:t=Andantino	!	!	!	!LO:TX:a:i:t=Andantino	!	!
[2F\ [2FF\	[2f/ [2c/ [2A-/	p	2r	.	2r	.	.
=2	=2	=2	=2	=2	=2	=2	=2
!	!	!	!	!	!	!	!LO:DY:b
8F\] 8FF\]	8f/] 8c/] 8A-/]	.	4r	.	4r	.	p
8r	8r	.	.	.	.	.	.
*	*	*	*^	*	*	*	*
8FF\L	8a-\L 8f\ 8c\	.	8c/	8F\	.	8a-/ 8f/	Szu-	.
8F\J	8b-\J 8f\ 8d-\	.	8d-/	8F\	.	8b-/ 8f/	-mi,	.
=3	=3	=3	=3	=3	=3	=3	=3	=3
*	*^	*	*	*	*	*^	*	*
!	!LO:N:vis=4	!	!	!	!	!	!	!	!	!
4FF/	(8a-/	4f\ 4c\	.	8c/	8F\	.	8a-/	8f\	szu-	.
!	!LO:N:vis=4	!	!	!	!	!	!	!	!	!
.	8f/)	.	.	16A-/LL	8F\	.	16f/LL	8c\	-mi	.
.	.	.	.	16B-/JJ	.	.	16g/JJ	.	.	.
8F\L	8a-/L 8f/ 8c/	4ryy	.	8c/	8F\	.	8a-/ 8f/	4ryy	gaj	.
8FF\J	8b-/J 8g/ 8c/	.	.	8c/	8F\	.	8b-/ 8g/	.	zie-	.
=4	=4	=4	=4	=4	=4	=4	=4	=4	=4	=4
!	!	!	!	!	!	!	!	!LO:TX:t=P:problem=błędne wyświetlanie łuku	!	!
4F\	4cc\ 4a-\ 4c\	4ryy	.	4.c/	(4F\	.	4.cc/	(>4a-\	-lo-	.
(4A-\	(4cc/	[4f\	.	.	8A-\)	.	.	8f\)	.	.
.	.	.	.	8c/	8A-\	.	8cc/	8f\	-ny,	.
=5	=5	=5	=5	=5	=5	=5	=5	=5	=5	=5
4B-\	8dd-/L	4.f\]	.	8B-/	8B-\	.	8dd-/	8f\	cię-	.
.	16cc/L	.	.	8d-/	8B-\	.	16cc/LL	8f\	-żko	.
.	16b-/J	.	.	.	.	.	16b-/JJ	.	.	.
8c\L	8a-/	.	.	8c/	8c\	.	8a-/	8f\	mo-	.
8B-\J 8C\)	8g/J)	8en\	.	8c/	8C\	.	8g/	8en\	-jej	.
*	*v	*v	*	*	*	*	*	*	*	*
=6	=6	=6	=6	=6	=6	=6	=6	=6	=6
4A-\ 4F\	(8f/L	.	8c/	8F\	.	8b-/	8f\	gło-	.
.	8c/J)	.	16c/	16F\	.	16a-/	16f\	-wie!	.
.	.	.	16r	16r	.	16r	16r	.	.
8FF\L	8a-/L 8f/	.	8c/	8F\	.	8a-/	8f\	nie-	.
8F\J	8b-/J 8f/ 8d-/	.	8d-/	8F\	.	8b-/	8f\	-przy-	.
=7	=7	=7	=7	=7	=7	=7	=7	=7	=7
!!LO:LB:g=original
4FF/	8a-/ 8c/	.	8c/ 8F/	8ryy	.	8a-/	8f\	-ja-	.
.	(16f/LL	.	16A-/LL	8F\	.	16f/LL	8c\	-zne	.
.	16g/JJ	.	16B-/JJ	.	.	16g/JJ	.	.	.
8F\L	8a-/L 8f/)	.	8c/	8F\	.	8a-/	8f\	ob-	.
[<8FF\J	8b-/J 8g/ 8c/	.	8c/	8F\	.	8b-/	8g\	-ce	.
=8	=8	=8	=8	=8	=8	=8	=8	=8	=8
8F\ 8FF\]	8cc\ 8a-\ 8c\	.	8c/	8F\	.	(8cc/	8a-\	stro-	.
8r	8r	.	4A-/;	4ryy	.	4ff/;)	4f\;	.	.
(<4AA-/;	[4f/ 4c/;	.	.	.	.	.	.	.	.
.	.	.	8c/	8A-\	.	8cc/	8f\	-ny,	.
=9	=9	=9	=9	=9	=9	=9	=9	=9	=9
4BB-/	4g/ 4f/] 4d-/	.	8B-/	8B-\	.	16ee-/LL	8f\	źli	.
.	.	.	.	.	.	16dd-/JJ	.	.	.
.	.	.	8d-/	8B-\	.	16cc/LL	16f\LL	go-	.
.	.	.	.	.	.	16b-/JJ	16g\JJ	.	.
8C\L)	8a-/L 8f/	.	8c/	8c\	.	8a-/ 8f/	8ryy	-spo-	.
8B-\J	8g/J 8en/	.	8B-/	8C\	.	8g/ 8en/	8ryy	-da-	.
=10	=10	=10	=10	=10	=10	=10	=10	=10	=10
8A-\ 8F\	8f/	.	8A-/	8F\	.	8f/	8f\	-rzo-	.
8r	8r	.	8A-/	8F\	.	8f/	8f\	-wie!	.
8A-\L	8cc\L 8a-\ 8e-\	.	4ryy	4r	.	4ryy	4r	.	.
8A-\J	8dd-\J 8a-\ 8f\	.	.	.	.	.	.	.	.
*	*	*	*v	*v	*	*	*	*	*
*	*	*	*	*	*v	*v	*	*
=11	=11	=11	=11	=11	=11	=11	=11
4A-\	(8cc/L 8e-/	.	2ryy	.	2r	.	.
.	16a-/L	.	.	.	.	.	.
.	16b-\JJ	.	.	.	.	.	.
8c\L 8A-\	8cc/L 8a-/)	.	.	.	.	.	.
8B-\J 8F\	8ddn\J 8a-\	.	.	.	.	.	.
=12	=12	=12	=12	=12	=12	=12	=12
*^	*^	*	*^	*	*^	*	*
4B-/	(2E-\	4ee-/ 4g/	4ryy	.	4r	4ryy	.	4r	4ryy	.	.
4e-/	.	(8b-/L	4g-X\	.	8B-/	8E-\	.	8b-/	8g-X\	i	.
.	.	8cc/J	.	.	8e-/	8E-\	.	8cc/	8g-\	są-	.
=13	=13	=13	=13	=13	=13	=13	=13	=13	=13	=13	=13
4B-/	4B-\	8dd-/L	4f\	.	8f/	8B-\	.	8dd-/	8f\	-sie-	.
.	.	16cc/L	.	.	16e-/LL	8B-\	.	16cc/LL	8f\	-dzi	.
.	.	16b-/JJ	.	.	16d-/JJ	.	.	16b-/JJ	.	.	.
8c\L 8E-\)	4ryy	8a-/L)	8e-\L	.	8c/	8E-\	.	8a-/	8e-\	tu	.
8B-\J 8E-\	.	8g/J	8d-\J	.	8B-/	8E-\	.	8g/	8d-\	la-	.
*v	*v	*	*	*	*	*	*	*v	*v	*	*
=14	=14	=14	=14	=14	=14	=14	=14	=14	=14
!!LO:LB:g=original
4A-\	(<8a-/L	4c\	.	8A-/	8A-\	.	8a-/ 8c/	-da-	.
.	8e-/J)	.	.	8A-/	8A-\	.	8e-/ 8c/	-co,	.
8e-\L 8A-\	8cc/L	8a-\L	.	4r	4r	.	4r	.	.
8f\J 8A-\	8dd-/J	8a-\J	.	.	.	.	.	.	.
*	*v	*v	*	*	*	*	*	*	*
=15	=15	=15	=15	=15	=15	=15	=15	=15
*^	*	*	*	*	*	*^	*	*
4.e-/	4A-\	8cc\ 8a-\	.	8e-/ 8A-/	8ryy	.	8cc/	8a-\	żąć	.
.	.	16a-/LL	.	16c/LL	8A-\	.	16a-/LL	8a-\	gdy	.
.	.	16b-\JJ	.	16d-/JJ	.	.	16b-/JJ	.	.	.
.	8F\L	8cc\L 8a-\	.	8e-/	8F\	.	8cc/	8a-\	u	.
[8B-/	8B-\J	8ddn\J 8a-\	.	8f/	8B-\	.	8ddn/	8a-\	nich	.
*v	*v	*	*	*v	*v	*	*	*	*	*
=16	=16	=16	=16	=16	=16	=16	=16	=16
*	*^	*	*	*	*	*	*	*
4B-\] 4E-\;	4ee-\ 4g\;	4ryy	.	8.e-\ 8.E-\;	.	8.ee-/;	8.g\	przyj-	.
.	.	.	.	32e-\ 32E-\	.	32b-/	32g\	-dzie,	.
!	!	!	!	!	!	!LO:TX:a:i:t=un poco piu mosso.	!	!	!
.	.	.	.	32r	.	32r	32r	.	.
!	!	!	!	!	!	!	!	!	!LO:HP:a
(<4e-\ [>4A-\	(8b-/L	4g-X\	<	8e-\ 8A-\	.	8b-/	8g-X\	le-	<
.	8cc/J	.	[[	8e-\ 8A-\	.	8cc/	8g-\	-dwie	[[
=17	=17	=17	=17	=17	=17	=17	=17	=17	=17
*	*	*	*	*^	*	*	*	*	*
!	!	!	!	!	!	!	!	!	!	!LO:HP:a
4A-\] 4D-\	8ee-/L	2f\	>	8f/	8d-\	się	8ee-/	8f\	.	>
.	16dd-/L	.	.	16f/LL	8D-\	roz-	16dd-/LL	8f\	.	]
.	16cc/JJ	.	]	16e-/JJ	.	.	16cc/JJ	.	.	.
4d-\ [4G\	8b-/L	.	.	8d-/	8G\	-sta-	8b-/	8f\	.	.
!	!	!	!	!	!	!	!	!	!	!LO:DY:a
.	8dd-/J	.	<	8B-/	8G\	-ne	8dd-/	8f\	.	<
=18	=18	=18	=18	=18	=18	=18	=18	=18	=18	=18
4G\] 4C\	8cc/L	4en\	[	8c/	8c\	z pra-	8cc/	8en\	.	[
!	!	!	!	!	!	!	!	!	!	!LO:DY:a
.	16b-/L	.	>	8c/	8C\	-cą	16b-/LL	8e\	.	>
.	16a-/JJ	.	]]	.	.	.	16a-/JJ	.	.	]
!	!	!	!	!	!	!	!	!	!	!LO:DY:a
4B-\ 4E-X\	8g/L	4e-X\	p	8B-/	8E-\	kie-	8g/	8e-X\	.	p
.	8a-/J	.	.	8B-/	8E-\	-dy	8a-/	8e-\	.	.
*	*v	*v	*	*	*	*	*	*	*	*
=19	=19	=19	=19	=19	=19	=19	=19	=19	=19
!	!	!	!	!	!	!LO:TX:a:i:t=rit.	!	!	!
8BB-/L	8b-/L 8dn/	.	8B-/	8BB-\	.	8b-/	8dn\	księ-	.
8BBn/	8f/ 8d-X/	.	8A-/	8BBn\	.	8f/	8d-X\	-życ	.
8C/	8a-/ 8c/	.	(8A-/	4C\	.	(8.a-/	(8c\	wznij-	.
8CC/J)	8en/J 8B-/	.	8B-/)	.	.	.	8en\)	.	.
.	.	.	.	.	.	16g/)	.	.	.
=20	=20	=20	=20	=20	=20	=20	=20	=20	=20
!!LO:LB:g=original
*^	*	*	*	*	*	*	*	*	*
!	!	!	!	!	!	!	!LO:TX:a:i:t=a Tempo1.o	!	!	!
[2F/	(4FF\	4f/ 4A-/)	.	4A-/	4F\	.	4f/	4f\	-dzie	.
.	8BB-\L	(>8f/L 8d-/ 8B-/	.	4r	4ryy	.	4r	4ryy	.	.
.	8FF\J	8f/J 8e-/ 8c/	.	.	.	.	.	.	.	.
*	*	*	*	*v	*v	*	*	*	*	*
*	*	*	*	*	*	*v	*v	*	*
=21	=21	=21	=21	=21	=21	=21	=21	=21
2F/_	4BB-\	4f/ 4d-/ 4B-/	.	2r	.	2r	.	.
.	8FF\L)	8f/L 8c/ 8A-/	.	.	.	.	.	.
.	8BB-\J	8f/J 8B-/ 8G/)	.	.	.	.	.	.
=22	=22	=22	=22	=22	=22	=22	=22	=22
2F\_ [<2FF\	2ryy	[2f/ [>2c/ [2A-/	.	2r	.	2r	.	.
=23	=23	=23	=23	=23	=23	=23	=23	=23
!	!	!	!	!	!	!	!	!LO:DY:b
8F\] 8FF\]	4ryy	8f/] 8c/] 8A-/]	.	4r	.	4r	.	p
8r	.	8r	.	.	.	.	.	.
*	*	*	*	*^	*	*	*	*
8FF\L	4ryy	8a-/L 8f/ 8c/	.	8c/	8F\	.	8a-/ 8f/	Szu-	.
8F\J	.	8b-/J 8f/ 8d-/	.	8d-/	8F\	.	8b-/ 8f/	-mi,	.
*v	*v	*	*	*	*	*	*	*	*
=24	=24	=24	=24	=24	=24	=24	=24	=24
*	*^	*	*	*	*	*^	*	*
4FF/	(8a-/L	4c\	.	8c/	8F\	.	8a-/	8f\	szu-	.
.	8f/J)	.	.	16A-/LL	8F\	.	16f/LL	8c\	-mi	.
.	.	.	.	16B-/JJ	.	.	16g/JJ	.	.	.
8F\L	8a-/L 8f/ 8c/	4ryy	.	8c/	8F\	.	8a-/ 8f/	4ryy	gaj	.
8FF\J	8b-/J 8g/ 8c/	.	.	8c/	8F\	.	8b-/ 8g/	.	zie-	.
*	*v	*v	*	*	*	*	*	*	*	*
=25	=25	=25	=25	=25	=25	=25	=25	=25	=25
4F\	4cc\ 4a-\ 4c\	.	4.c/	(4F\	.	4.cc/	(4a-\	-lo-	.
(4A-\	(4cc\ [(4f\	.	.	8A-\)	.	.	8f\)	.	.
.	.	.	8c/	8A-\	.	8cc/	8f\	-ny	.
=26	=26	=26	=26	=26	=26	=26	=26	=26	=26
*	*^	*	*	*	*	*	*	*	*
(4B-\)	8dd-/L)	4.f\]	.	8B-/	8B-\	.	8dd-/	8f\	przer-	.
.	16cc/L	.	.	8d-/	8B-\	.	16cc/LL	8f\	-wie	.
.	16b-/JJ	.	.	.	.	.	16b-/JJ	.	.	.
8c\L)	8a-/L)	.	.	8c/	8c\	.	8a-/	8f\	mą	.
8B-\J 8C\	8g/J 8en/	8ryy	.	8c/	8C\	.	8g/	8en\	tę-	.
*	*v	*v	*	*v	*v	*	*	*	*	*
=27	=27	=27	=27	=27	=27	=27	=27	=27
!!LO:PB:g=original
4A-\ 4F\	(8f/L	.	8c\ 8F\	.	8b-/	8f\	-skni-	.
.	8c/J)	.	16c\ 16F\	.	16a-/	16f\	-ce;	.
.	.	.	16r	.	16r	16ryy	.	.
8FF\L	8a-/L 8f/ 8c/	.	8c\ 8F\	.	8a-/	8f\	przecz	.
8F\J	8b-/J 8f/ 8d-/	.	8d-\ 8F\	.	8b-/	8f\	mię	.
*	*	*	*^	*	*	*	*	*
=28	=28	=28	=28	=28	=28	=28	=28	=28	=28
4FF/	8a-/ 8c/	.	8c/	8F\	.	8a-/	8f\	drę-	.
.	(16f/LL	.	16A-/LL	8F\	.	16f/LL	8c\	-czy	.
.	16g/JJ)	.	16B-/JJ	.	.	16g/JJ	.	.	.
8F\L	8a-/L 8f/	.	8c/	8F\	.	8a-/	8f\	smu-	.
[8FF\J	8b-/J 8g/ 8c/	.	8c/	8F\	.	8b-/	8g\	-tek	.
=29	=29	=29	=29	=29	=29	=29	=29	=29	=29
*	*^	*	*	*	*	*	*	*	*
8F\ 8FF\]	8cc/ 8a-/ 8c/	4ryy	.	8c/	8F\	.	8cc/	8a-\	pło-	.
8r	8r	.	.	16c/	16F\	.	16cc/	16a-\	-ny?	.
.	.	.	.	16r	16r	.	16r	16r	.	.
(4AA-/;<	8.cc/;L	[>4f\ 4c\	sf	(4c/	(4A-\;	.	[4ff/;	[4f\	Mam	.
.	16cc/Jk	.	.	.	.	.	.	.	.	.
=30	=30	=30	=30	=30	=30	=30	=30	=30	=30	=30
4BB-/	8dd-/L	4f\] 4d-\	.	(8d-/)	4B-\)	.	8ff/]	8f\]	.	.
!	!	!	!	!	!	!	!LO:TX:a:i:t=rallentando	!	!	!
.	16cc/L	.	>	8f/)	.	.	16ee-/LL	16cc\LL	i	.
.	16b-/JJ	.	]	.	.	.	16dd-/JJ	16b-\JJ	.	.
!	!LO:TX:b:i:t=ral	!	!	!	!	!	!	!	!	!
8C/L)	8a-/L 8f/ 8c/	4ryy	.	8f/	8c\	.	8.cc/	8a-\	ja	.
8C/J	8g/J 8en/ 8B-/	.	.	8en/	8C\	.	.	8g\	.	.
.	.	.	.	.	.	.	16b-/	.	ro-	.
*	*v	*v	*	*	*	*	*	*	*	*
=31	=31	=31	=31	=31	=31	=31	=31	=31	=31
8F\	8f/ 8A-/	.	8f/	8F\	.	8b-/	8c\	-dzi-	.
8r	8r	.	8c/	8F\	.	8a-/	8f\	-ce:	.
!	!LO:TX:a:i:t=Tempo 1o	!	!	!	!	!LO:TX:a:i:t=Tempo 1o	!	!	!
8A-\L	8cc\L 8a-\ 8e-\	.	4r	4r	.	4r	4ryy	.	.
8A-\J	8dd-\J 8a-\ 8f\	.	.	.	.	.	.	.	.
*	*	*	*v	*v	*	*	*	*	*
*	*	*	*	*	*v	*v	*	*
=32	=32	=32	=32	=32	=32	=32	=32
*	*^	*	*	*	*	*	*
4A-\	8cc/L	4e-\	.	2r	.	2r	.	.
.	(<16a-/L	.	.	.	.	.	.	.
.	16b-/JJ)	.	.	.	.	.	.	.
8c\L 8A-\	8cc\L 8a-\	4ryy	.	.	.	.	.	.
8B-\J 8F\	8ddn\J 8a-\	.	.	.	.	.	.	.
=33	=33	=33	=33	=33	=33	=33	=33	=33
!!LO:LB:g=original
*^	*	*	*	*^	*	*^	*	*
!	!	!	!	!	!	!	!	!	!	!	!LO:DY:a
4B-/	(2E-\	4ee-/ 4g/	4ryy	.	4.B-/	4.E-\	.	4.ee-/	4g\	oj-	p
4e-/	.	(8b-/L	4g-X\	.	.	.	.	.	4g-X\	.	.
.	.	8cc/J	.	.	8c/	8E-\	.	8a-/	.	-cem	.
=34	=34	=34	=34	=34	=34	=34	=34	=34	=34	=34	=34
4B-/	4B-\	8dd-/L	4f\	.	8B-/	8B-\	.	8dd-/	8f\	mo-	.
.	.	16cc/L	.	.	16e-/LL	8B-\	.	16cc/LL	8f\	-im	.
.	.	16b-/JJ	.	.	16d-/JJ	.	.	16b-/JJ	.	.	.
8c/L 8E-/)	4ryy	8a-/L)	8e-\L	.	8c/	8E-\	.	8a-/	8e-\	tyś	.
8B-/J 8E-/	.	8g/J	8d-\J	.	8B-/	8E-\	.	8g/	8d-\	jest	.
*v	*v	*	*	*	*	*	*	*	*	*	*
=35	=35	=35	=35	=35	=35	=35	=35	=35	=35	=35
4A-\	(8a-/L	4c\	.	4A-/	4A-\	.	4a-/	4c\	Bo-	.
.	8e-/J)	.	.	.	.	.	.	.	.	.
8e-\L 8A-\	8cc\L 8a-\	4ryy	.	8e-/	8A-\	.	8cc/	8a-\	-że!	.
8f\J 8A-\	8dd-\J 8a-\	.	.	8f/	8A-\	.	8dd-/	8a-\	Ty	.
=36	=36	=36	=36	=36	=36	=36	=36	=36	=36	=36
*^	*	*	*	*	*	*	*	*	*	*
4.e-/	4A-\	8cc/	8a-\	.	8e-/	8A-\	.	8cc/	8a-\	dasz	.
.	.	(16a-/LL	8ryy	.	16c/LL	8A-\	.	16a-/LL	8a-\	mi	.
.	.	16b-/JJ)	.	.	16d-/JJ	.	.	16b-/JJ	.	.	.
.	8F\L	8cc\L 8a-\	4ryy	.	8e-/	8F\	.	8cc/	8a-\	spo-	.
[8B-/	8B-\J	8ddn\J 8a-\	.	.	8f/	8B-\	.	8ddn/	8a-\	-cząć	.
*v	*v	*	*	*	*	*	*	*	*	*	*
=37	=37	=37	=37	=37	=37	=37	=37	=37	=37	=37
4B-\] 4E-\;	4ee-/ 4g/;	4ryy	.	8.e-/	8.E-\;	w nie-	8.ee-/;	8.g\	.	.
.	.	.	.	32e-/	32E-\	-bie;	32b-/	32g\	.	.
.	.	.	.	32r	32r	.	32r	32r	.	.
(4e-\ (4A-\	(8b-/L	4g-X\	<	8e-/	8A-\	mo-	8b-/	8g-X\	.	.
.	8cc/J	.	[[	8e-/	8A-\	-ją	8cc/	8g-\	.	.
=38	=38	=38	=38	=38	=38	=38	=38	=38	=38	=38
4A-\) 4D-\)	(8ee-/L)	2f\	>	8f/	8c\	ma-	8ee-/	8f\	.	.
.	16dd-/L	.	.	16f/LL	8D-\	-tką	16dd-/LL	8f\	.	.
.	16cc/JJ	.	]]	16e-/JJ	.	.	16cc/JJ	.	.	.
(4d-\ (4G\	8b-/L	.	<	8d-/	8G\	tyś	8b-/	8f\	.	.
.	8dd-/J	.	[[	8B-/	8G\	jest	8dd-/	8f\	.	.
=39	=39	=39	=39	=39	=39	=39	=39	=39	=39	=39
!!LO:LB:g=original
!LO:TX:t=P:problem=nieokreślony początek łuku	!	!	!	!	!	!	!	!	!	!
(<4G\) 4C\)	8cc/L	4en\	.	8c/	8c\	.	8cc/	8en\	zie-	.
.	16b-/L	.	.	8c/	8C\	.	16b-/LL	8e\	-mio,	.
.	16a-/JJ	.	.	.	.	.	16a-/JJ	.	.	.
4B-\ 4E-X\	8g/L	4e-X\	.	8B-/	8E-\	.	8g/	8e-X\	przyj-	.
!	!	!	!	!	!	!	!	!	!	!LO:DY:a
.	8a-/J	.	p	8B-/	8E-\	.	8a-/	8e-\	-miesz	p
*	*v	*v	*	*	*	*	*	*	*	*
=40	=40	=40	=40	=40	=40	=40	=40	=40	=40
8BB-/L	8b-/L 8d-/	.	8B-/	8BB-\	.	8b-/	8dn\	mię	.
!	!LO:TX:b:i:t=rit	!	!	!	!	!	!	!	!
8BBn/	8f/ 8d-X/	.	8A-/	8BBn\	.	8f/	8d-X\	do	.
8C/	8a-/ 8c/	.	(8A-/	4C\	.	(8.a-/	8c\	sie-	.
8CC/J)	8en/J 8B-X/	.	8B-/)	.	.	.	8en\	.	.
.	.	.	.	.	.	16g/)	.	.	.
=41	=41	=41	=41	=41	=41	=41	=41	=41	=41
*^	*	*	*	*	*	*	*	*	*
[2F/	4FF\	4f/ 4A-/)	.	4A-/	[2F\	.	[2f/	4f\	-bie	.
.	8BB-\L	8f/L 8d-/ 8B-/	.	8B-/	.	.	.	8d-\	przyj-	.
.	8FF\J	8f/J 8e-/ 8c/	.	8c/	.	.	.	8e-\	-miesz	.
=42	=42	=42	=42	=42	=42	=42	=42	=42	=42	=42
2F/]	4BB-\	4f/ 4d-/ 4B-/	.	4B-/	4.F\]	.	4.f/]	4d-\	mię	.
.	8FF\L	8f/L 8c/ 8A-/	.	8A-/L	.	.	.	8c\L	.	.
*	*	*	*	*	*	*	*	*	*^	*
!	!	!	!	!	!	!	!LO:TX:t=P:problem=jedna linijka tekstu zapisana nad systemem	!	!	!	!
.	8BB-\J	8f/J 8B-/ 8G/	.	8G/J	8F\	do	8f/	8B-\J	do	do	.
*v	*v	*	*	*	*	*	*	*	*	*	*
=43	=43	=43	=43	=43	=43	=43	=43	=43	=43	=43
[2F\ [2FF\	[2f/ [>2c/ [2A-/	.	2A-/	2F\	sie-	2f/	2c\	sie-	sie-	.
=44	=44	=44	=44	=44	=44	=44	=44	=44	=44	=44
4F\] 4FF\]	4f/] 4c/] 4A-/]	.	4A-/	4F\	-bie	4f/	4c\	-bie.	-bie	.
*	*	*	*	*	*	*	*	*v	*v	*
4r	4r	.	4r	4ryy	.	4r	4ryy	.	.
*	*	*	*v	*v	*	*	*	*	*
*	*	*	*	*	*v	*v	*	*
==	==	==	==	==	==	==	==
*-	*-	*-	*-	*-	*-	*-	*-
!!!system-decoration: {(s1,s2)}{(s3,s4)}
!!!ENC: Anastazja Marusiak
!!!END: 2021-07-28
!!!AIN: 1 bass 1 empty 1 forte 1 tenor
!!!ENC: Kamil Watkowski
!!!END: 2021-08-25
!!!RDF**kern: > = above
!!!RDF**kern: < = below
